svg/emoji_u1f97d.svg

<?xml version="1.0" encoding="UTF-8" standalone="no"?>
<svg
   xmlns:dc="http://purl.org/dc/elements/1.1/"
   xmlns:cc="http://creativecommons.org/ns#"
   xmlns:rdf="http://www.w3.org/1999/02/22-rdf-syntax-ns#"
   xmlns:svg="http://www.w3.org/2000/svg"
   xmlns="http://www.w3.org/2000/svg"
   xmlns:sodipodi="http://sodipodi.sourceforge.net/DTD/sodipodi-0.dtd"
   xmlns:inkscape="http://www.inkscape.org/namespaces/inkscape"
   width="128"
   height="128"
   style="enable-background:new 0 0 128 128;"
   version="1.1"
   id="svg2295"
   sodipodi:docname="emoji_u1f97d.svg"
   inkscape:version="0.92.3 (2405546, 2018-03-11)">
  <metadata
     id="metadata2301">
    <rdf:RDF>
      <cc:Work
         rdf:about="">
        <dc:format>image/svg+xml</dc:format>
        <dc:type
           rdf:resource="http://purl.org/dc/dcmitype/StillImage" />
        <dc:title></dc:title>
      </cc:Work>
    </rdf:RDF>
  </metadata>
  <defs
     id="defs2299" />
  <sodipodi:namedview
     pagecolor="#ffffff"
     bordercolor="#666666"
     borderopacity="1"
     objecttolerance="10"
     gridtolerance="10"
     guidetolerance="10"
     inkscape:pageopacity="0"
     inkscape:pageshadow="2"
     inkscape:window-width="1920"
     inkscape:window-height="1046"
     id="namedview2297"
     showgrid="false"
     inkscape:zoom="1.84375"
     inkscape:cx="-16.559782"
     inkscape:cy="90.023938"
     inkscape:window-x="-11"
     inkscape:window-y="-11"
     inkscape:window-maximized="1"
     inkscape:current-layer="svg2295"
     inkscape:snap-object-midpoints="true"
     inkscape:snap-bbox="true"
     inkscape:bbox-paths="false"
     inkscape:bbox-nodes="true"
     inkscape:snap-bbox-edge-midpoints="true"
     inkscape:snap-intersection-paths="true"
     inkscape:snap-global="true"
     inkscape:measure-start="0,0"
     inkscape:measure-end="0,0"
     inkscape:snap-bbox-midpoints="true"
     inkscape:object-paths="true" />
  <path
     style="color:#000000;font-style:normal;font-variant:normal;font-weight:normal;font-stretch:normal;font-size:medium;line-height:normal;font-family:sans-serif;font-variant-ligatures:normal;font-variant-position:normal;font-variant-caps:normal;font-variant-numeric:normal;font-variant-alternates:normal;font-feature-settings:normal;text-indent:0;text-align:start;text-decoration:none;text-decoration-line:none;text-decoration-style:solid;text-decoration-color:#000000;letter-spacing:normal;word-spacing:normal;text-transform:none;writing-mode:lr-tb;direction:ltr;text-orientation:mixed;dominant-baseline:auto;baseline-shift:baseline;text-anchor:start;white-space:normal;shape-padding:0;clip-rule:nonzero;display:inline;overflow:visible;visibility:visible;opacity:1;isolation:auto;mix-blend-mode:normal;color-interpolation:sRGB;color-interpolation-filters:linearRGB;solid-color:#000000;solid-opacity:1;vector-effect:none;fill:#5f73eb;fill-opacity:1;fill-rule:nonzero;stroke:none;stroke-width:10;stroke-linecap:round;stroke-linejoin:miter;stroke-miterlimit:4;stroke-dasharray:none;stroke-dashoffset:0;stroke-opacity:1;color-rendering:auto;image-rendering:auto;shape-rendering:auto;text-rendering:auto;enable-background:accumulate"
     d="M 83.048828 37.009766 C 82.715044 37.019128 82.386617 37.040263 82.0625 37.070312 C 78.173097 37.430912 74.995941 39.205148 72.701172 40.523438 C 69.64148 42.281155 68.137754 43.078298 66.449219 42.796875 C 60.871025 41.867176 57.981257 39.638267 52.998047 38.607422 C 50.506442 38.091999 47.40855 38.242448 44.546875 39.501953 C 42.098904 40.579375 39.752289 42.414064 37.195312 44.822266 C 36.337674 44.947066 35.102425 45.119291 33.599609 45.355469 C 30.528657 45.838089 26.410236 46.569074 22.117188 47.699219 C 17.824137 48.829364 13.358567 50.326515 9.4375 52.580078 C 5.5164332 54.833642 1.7949997 58.032892 0.57226562 62.923828 C -0.45243739 67.02264 0.52204852 70.842693 1.8984375 73.996094 C 3.2748265 77.149494 5.0765224 79.706208 7.0761719 81.597656 A 5.0005 5.0005 0 0 0 10.701172 83.039062 C 10.589276 82.240102 10.511719 81.430381 10.511719 80.599609 L 10.511719 75.738281 C 10.511719 73.908657 10.795796 72.149318 11.316406 70.496094 C 11.233826 70.327839 11.136568 70.165788 11.0625 69.996094 C 10.252602 68.140562 10.031995 66.32124 10.275391 65.347656 C 10.531989 64.321263 11.750698 62.785212 14.421875 61.25 C 17.093052 59.714788 20.87166 58.369444 24.664062 57.371094 C 28.456466 56.372744 32.26434 55.688244 35.152344 55.234375 C 36.596346 55.007441 37.806113 54.837908 38.716797 54.705078 C 39.172139 54.638668 39.54298 54.583084 39.904297 54.519531 C 40.084955 54.487751 40.252289 54.459731 40.525391 54.392578 C 40.661942 54.358998 40.818623 54.322258 41.111328 54.216797 C 41.404033 54.111331 41.762332 54.257197 42.992188 53.027344 C 45.61835 50.40118 47.479565 49.136945 48.576172 48.654297 C 49.672779 48.171649 49.972914 48.191626 50.972656 48.398438 C 52.972141 48.812058 57.435811 51.43201 64.804688 52.660156 C 70.417832 53.595681 74.739211 50.885668 77.681641 49.195312 C 80.62407 47.504959 82.176315 46.684579 84.394531 47.087891 C 87.846709 47.71556 90.491902 49.481691 93.400391 52.197266 C 96.162188 54.775877 98.746687 56.788622 101.06836 58.400391 L 105.57422 58.400391 C 115.1796 58.400391 122.91406 66.132903 122.91406 75.738281 L 122.91406 80.599609 C 122.91406 81.235975 122.87478 81.862248 122.80859 82.480469 A 5.0005 5.0005 0 0 0 127.49414 79.429688 C 129.41102 75.052532 127.8346 71.098107 126.04297 67.648438 C 124.25134 64.198767 121.72669 60.924377 119.07617 58.046875 C 113.93872 52.469474 108.26069 52.389912 100.22656 44.888672 C 96.629233 41.529944 92.112621 38.328361 86.181641 37.25 C 85.09533 37.052489 84.05018 36.981678 83.048828 37.009766 z "
     id="path867" />
  <path
     style="opacity:1;vector-effect:none;fill:#dee4e9;fill-opacity:1;stroke:none;stroke-width:20;stroke-linecap:round;stroke-linejoin:round;stroke-miterlimit:4;stroke-dasharray:none;stroke-dashoffset:0;stroke-opacity:1;paint-order:stroke fill markers"
     d="M 27.849609 58.400391 C 18.244231 58.400391 10.511719 66.132903 10.511719 75.738281 L 10.511719 80.599609 C 10.511719 90.204988 18.244231 97.9375 27.849609 97.9375 L 40.759766 97.9375 C 49.662137 97.9375 56.944661 91.291075 57.964844 82.671875 A 8.7470697 5.297308 0 0 1 66.710938 77.375 A 8.7470697 5.297308 0 0 1 75.458984 82.671875 C 76.478899 91.291099 83.761676 97.9375 92.664062 97.9375 L 105.57422 97.9375 C 115.1796 97.9375 122.91406 90.204988 122.91406 80.599609 L 122.91406 75.738281 C 122.91406 66.132903 115.1796 58.400391 105.57422 58.400391 L 93.900391 58.400391 L 92.664062 58.400391 L 45.353516 58.400391 C 44.641423 58.400391 43.947348 58.474054 43.273438 58.601562 C 42.450727 58.482718 41.616396 58.400391 40.759766 58.400391 L 27.849609 58.400391 z M 25.509766 63.175781 L 36.253906 63.175781 L 43.099609 63.175781 C 49.22041 63.175781 54.148438 68.101855 54.148438 74.222656 L 54.148438 82.671875 L 54.148438 85.099609 C 54.148438 91.22041 49.22041 96.148437 43.099609 96.148438 L 25.509766 96.148438 C 19.388965 96.148438 14.460938 91.22041 14.460938 85.099609 L 14.460938 74.222656 C 14.460938 68.101855 19.388965 63.175781 25.509766 63.175781 z M 90.324219 63.175781 L 103.00195 63.175781 L 107.91406 63.175781 C 114.03486 63.175781 118.96289 68.101855 118.96289 74.222656 L 118.96289 85.099609 C 118.96289 91.22041 114.03486 96.148438 107.91406 96.148438 L 90.324219 96.148438 C 84.203418 96.148438 79.275391 91.22041 79.275391 85.099609 L 79.275391 82.671875 L 79.275391 74.222656 C 79.275391 68.101855 84.203418 63.175781 90.324219 63.175781 z "
     id="rect836" />
  <rect
     style="opacity:1;vector-effect:none;fill:#32abfe;fill-opacity:0.51851849;stroke:none;stroke-width:20;stroke-linecap:round;stroke-linejoin:round;stroke-miterlimit:4;stroke-dasharray:none;stroke-dashoffset:0;stroke-opacity:1;paint-order:stroke fill markers"
     id="rect828"
     width="39.686348"
     height="32.972488"
     x="14.461913"
     y="63.175217"
     rx="11.048377" />
  <rect
     rx="11.048377"
     y="63.175217"
     x="79.276039"
     height="32.972488"
     width="39.686348"
     id="rect849"
     style="opacity:1;vector-effect:none;fill:#32abfe;fill-opacity:0.51851849;stroke:none;stroke-width:20;stroke-linecap:round;stroke-linejoin:round;stroke-miterlimit:4;stroke-dasharray:none;stroke-dashoffset:0;stroke-opacity:1;paint-order:stroke fill markers" />
</svg>

<svg xmlns="http://www.w3.org/2000/svg" width="128" height="128"><path style="line-height:normal;font-variant-ligatures:normal;font-variant-position:normal;font-variant-caps:normal;font-variant-numeric:normal;font-variant-alternates:normal;font-feature-settings:normal;text-indent:0;text-align:start;text-decoration-line:none;text-decoration-style:solid;text-decoration-color:#000;text-transform:none;text-orientation:mixed;shape-padding:0;isolation:auto;mix-blend-mode:normal" d="M83.049 37.01c-.334.01-.662.03-.987.06-3.889.36-7.066 2.135-9.36 3.453-3.06 1.758-4.564 2.555-6.253 2.274-5.578-.93-8.468-3.159-13.451-4.19-2.492-.515-5.59-.365-8.451.895-2.448 1.077-4.795 2.912-7.352 5.32-.857.125-2.093.297-3.595.533-3.071.483-7.19 1.214-11.483 2.344s-8.758 2.628-12.68 4.881c-3.92 2.254-7.642 5.453-8.865 10.344-1.024 4.099-.05 7.919 1.326 11.072 1.377 3.153 3.179 5.71 5.178 7.602a5 5 0 0 0 3.625 1.441 17.522 17.522 0 0 1-.19-2.44v-4.86c0-1.83.285-3.59.805-5.243-.082-.168-.18-.33-.254-.5-.81-1.855-1.03-3.675-.787-4.648.257-1.027 1.476-2.563 4.147-4.098 2.671-1.535 6.45-2.88 10.242-3.879 3.792-.998 7.6-1.683 10.488-2.137 1.444-.227 2.654-.396 3.565-.529.455-.066.826-.122 1.187-.185.181-.032.348-.06.621-.127.137-.034.294-.07.586-.176.293-.106.651.04 1.881-1.19 2.626-2.626 4.488-3.89 5.584-4.373 1.097-.482 1.397-.462 2.397-.256 2 .414 6.463 3.034 13.832 4.262 5.613.936 9.934-1.774 12.877-3.465 2.942-1.69 4.494-2.51 6.713-2.107 3.452.628 6.097 2.394 9.005 5.11a68.017 68.017 0 0 0 7.668 6.202h4.506c9.606 0 17.34 7.733 17.34 17.338V80.6c0 .636-.04 1.262-.105 1.88a5 5 0 0 0 4.685-3.05c1.917-4.377.34-8.332-1.451-11.782-1.792-3.45-4.316-6.724-6.967-9.601-5.137-5.578-10.815-5.657-18.85-13.158-3.597-3.36-8.113-6.56-14.044-7.639a15.097 15.097 0 0 0-3.133-.24z" color="#000" font-weight="400" font-family="sans-serif" white-space="normal" overflow="visible" fill="#5f73eb" stroke-width="10" stroke-linecap="round"/><path d="M27.85 58.4a17.3 17.3 0 0 0-17.338 17.338V80.6A17.3 17.3 0 0 0 27.85 97.938h12.91a17.29 17.29 0 0 0 17.205-15.266 8.747 5.297 0 0 1 8.746-5.297 8.747 5.297 0 0 1 8.748 5.297 17.29 17.29 0 0 0 17.205 15.266h12.91c9.606 0 17.34-7.733 17.34-17.338v-4.862a17.301 17.301 0 0 0-17.34-17.338h-60.22c-.713 0-1.407.074-2.08.202a17.515 17.515 0 0 0-2.514-.202H27.85zm-2.34 4.776H43.1c6.12 0 11.048 4.926 11.048 11.047V85.1c0 6.12-4.928 11.048-11.048 11.048H25.51A11.025 11.025 0 0 1 14.46 85.1V74.223c0-6.121 4.929-11.047 11.05-11.047zm64.814 0h17.59c6.12 0 11.049 4.926 11.049 11.047V85.1c0 6.12-4.928 11.048-11.049 11.048h-17.59A11.025 11.025 0 0 1 79.275 85.1V74.222c0-6.12 4.928-11.046 11.05-11.046z" fill="#dee4e9" stroke-width="20" stroke-linecap="round" stroke-linejoin="round" paint-order="stroke fill markers"/><rect width="39.686" height="32.972" x="14.462" y="63.175" rx="11.048" fill="#32abfe" fill-opacity=".519" stroke-width="20" stroke-linecap="round" stroke-linejoin="round" paint-order="stroke fill markers"/><rect rx="11.048" y="63.175" x="79.276" height="32.972" width="39.686" fill="#32abfe" fill-opacity=".519" stroke-width="20" stroke-linecap="round" stroke-linejoin="round" paint-order="stroke fill markers"/></svg>
